X: 1
T: Bannocks and Brose
C: Beryl S Johnston
B: Birmingham Branch RSCDS "Scottish Country Dances" #9
D: Beryl S Johnston "12 Scottish Country Dances" track 2
R: jig
Z: 2008 John Chambers <jc@trillian.mit.edu>
S: Copy of printed MS, probably from the above booklet
M: 6/8
L: 1/8
K: G
"(D7)"D2D \
| "C"E2G "D"F2A | "G"G2B d2d | "C"g2f g2e | "G"d3- d2z \
| "C"{ef}g2f g2e | "G"e2d B2G | "A7"A2B A2B | "D"d3 "D7"B2A |]
y3\
[| "G"G2F G2B | d2^c d2d | "C"e2d e2g | "D7"a3- a2z \
| "G"d'e'd' b2g | "Am"aba "C"g2e | "G"d2g "D7"f2a | "G"g3 :|
